X:26
T:Schottis fr{\aa}n Haver\"o
R:schottis
Z:id:hn-schottis-26
M:C|
K:Dm
D2DE FGFE|D2A2 A4|d^cde f2f2|efe^c A2A2|
D2DE FGFE|D2A2 A4|d^cde f2f2|1 e2{f}e^c d4:|2 e2{f}e^c d3f||
|:a2a^g a2a2|fg(3f/g/f/e f2f2|e2{f}e^c A2A2|{G}FGFE (3E/F/E/D D2|
a2a^g a2a2|fg(3f/g/f/e f2f2|e2{f}e^c Acec|1 d2d2 d3f:|2 d2d2 d4||
